X: 0
T: In The Country Nigh To Bethlehem
Z: G. Hine
Z: Sequenced 2003 by Douglas D. Anderson
Z: Public Domain
L: 1/4
M: 4/4
Q: 1/4=120
V: P1 name="Staff"
%%MIDI program 1 19
K: D
[V: P1]  (D/E/) F B A | A G F/ F/ E | (D/E/) F B ^A | B c ^A2 | d (c/B/) A G | F G A B | c d e d | c B A2 | E F G A | B (A/G/) F E | A A A A | A (A/B/) A2 | d (c/B/) A G | F G A B | c d e d | F E D2|]
w: In_ the coun- try nigh to Beth- le hem On_ a star- ry night of old, There were_ in the fields a- bid ing Shep- herds with their flocks in fold. Round the flocks the faith- ful_ shep- herds Keep their watch from eve till_ morn, Lest their_ sheep so weak and help- less, Should by e- vil beasts be torn.

